X: 781
T: Panhandle Country
C:Bill Monroe
B: jims roots
M:4/4
L:1/8
Q: 1/4=100
K:C
V:1 
z2 G2A2c2 | "C"[e2g-[e/g][c/g][e2g]- [c4e] | "F"[d2f]-[d/f][c/f][d/(f][c/f)] [A4c] | "G" [d2g]-[d/g]e/d/c/ BG Ac |
"C"[e2g][e/g]e/[eg]-[c2e] Gc | [e2g]-[e/g][c/g][eg]- [c4e] | "F"[d2f]-[d/f][cf]- [A4c] | "G"[d2g]-[d/g]e/d/c/ BG e2 |
"C"c2- cc/d/ c2 cG,/A,/B,/ | C2 EG c4 | "F"JA2- A/c/A/G/ F4 |
"G"[B2D]- [B/D]d/B/A/ G/E/D/C/ B,/A,/G,/B,/ | "C"C/B,/C/D/ E/D/E/F/ G/^F/G cG | E2- E/F/G c2-c/d/c |
"F"A2- A/c/A/G/ F4 | "G"[B2G]- [B/G]d/B/A/ G/E/D/C/ B,/A,/G,/B,/ | "C"C/B,/C/D/ E/D/E/F/ G/^F/G c2 ||
"C" (3B,A,B, |: CB,CD EGAB cBcd cAGE | "F"FDFG Acde fefg fedc |
"G"BAGA Bde^f gfga ga g2 | [1 "C"edce dcBd cBcd c2ED :|
[2 "C"edce dcBd c2cd cdc2 |
% abcbook-tune_id 6298c279c2e49a6cf2cfc5f7


% abcbook-boost 0
% abcbook-tablature 
% abcbook-transpose 
% abcbook-lastupdated 1654178426405
% abcbook-soundfonts 
% abcbook-repeats 1


